symbols/web/hourglass_empty/materialsymbolsoutlined/hourglass_empty_wght200grad200_24px.svg

<svg xmlns="http://www.w3.org/2000/svg" height="24" width="24"><path d="M8.05 20.15h7.9V17.1q0-1.75-1.138-2.963-1.137-1.212-2.812-1.212-1.675 0-2.812 1.212Q8.05 15.35 8.05 17.1ZM12 11.075q1.675 0 2.812-1.213Q15.95 8.65 15.95 6.9V3.85h-7.9V6.9q0 1.75 1.138 2.962 1.137 1.213 2.812 1.213ZM4.3 21.8v-1.65h2.1V17.1q0-1.65.825-3.025T9.45 12q-1.4-.7-2.225-2.075Q6.4 8.55 6.4 6.9V3.85H4.3V2.2h15.4v1.65h-2.1V6.9q0 1.65-.825 3.025T14.55 12q1.4.7 2.225 2.075.825 1.375.825 3.025v3.05h2.1v1.65Z"/></svg>

<svg xmlns="http://www.w3.org/2000/svg" height="24" width="24"><path d="M8.05 20.15H15.95V17.1Q15.95 15.35 14.812 14.137Q13.675 12.925 12 12.925Q10.325 12.925 9.188 14.137Q8.05 15.35 8.05 17.1ZM12 11.075Q13.675 11.075 14.812 9.862Q15.95 8.65 15.95 6.9V3.85H8.05V6.9Q8.05 8.65 9.188 9.862Q10.325 11.075 12 11.075ZM4.3 21.8V20.15H6.4V17.1Q6.4 15.45 7.225 14.075Q8.05 12.7 9.45 12Q8.05 11.3 7.225 9.925Q6.4 8.55 6.4 6.9V3.85H4.3V2.2H19.7V3.85H17.6V6.9Q17.6 8.55 16.775 9.925Q15.95 11.3 14.55 12Q15.95 12.7 16.775 14.075Q17.6 15.45 17.6 17.1V20.15H19.7V21.8Z"/></svg>
